X: 109
T:Mountain Road, The
M:C|
L:1/8
C:Michael Gorman
R:Reel
K:D
F2AF BFAF|F2AF EFDE|F2AF BFAF|GEFD EDB,D|!
F2AF BFAF|F2AF EFDE|FA~A2 BAFB|ABde fddA|]!
dcdB ADFA|dcde fgfe|dcdB ADFA|GEFD EDB,D|!
dcdB ADFA|dcde fgfe|dcdB ADFA|GEFD EDB,D|]!
